X: 7372
T: Cliffs, The
R: hornpipe
M: 4/4
K: Fmajor
|:cA|FAcA GBdB|A<cfg afcA|Bdf<b dfba|(3gag (3fed (3cdc (3BAG|
FAcA GBdB|Acfg afcA|Bagf e<gce|f2 f<a f2:|
|:ef|gc c/c/c ac c/c/c|bcac gc c/c/c|bcac gceg|(3fag (3fed (3cdc (3BAG|
FAcA GBdB|Acfg afcA|1 Bagf e<gce|f2 f<a f2:|2 Bagf e<ceg|f2 fe f2||

